X:1
T:[ID 2-21a]
T:[ID 2-21a]
T:Bezeichnung standardisiert: L\"uttiger oder Patriotten Tantz; Angeloisa L\"uttiger oder Patriotten Tantz In dieser Quelle auch als: Englisch
T:Urheber unbekannt Erstbeleg: 1767 (Datum in der schriftlichen Quelle) Datum in der hier transkribierten schriftlichen Quelle: 1792
C:Urheber unbekannt
C:Erstbeleg: 1767 (Datum in der schriftlichen Quelle)
C:Datum in der hier transkribierten schriftlichen Quelle: 1792
L:1/8
M:2/4
K:G
V:1 treble 
V:1
 G>A BB | G>A BB | c/d/c/B/ AA | B/d/"^1)" x/ x/ BA | G>A BB | G>A BB | c/d/c/B/ A/B/A/F/ | %7
 GG G2 :: d>c BB | gg d2 | d/e/"^1)"d/c/ BA | gg d2 | G>A BB | Gx/A/ BB | c/d/c/B/ A/B/A/F/ | %15
 GG G2 :| %16

